assets/globe.svg

<?xml version="1.0" encoding="UTF-8"?>
<svg width="20px" height="20px" viewBox="0 0 20 20" version="1.1" xmlns="http://www.w3.org/2000/svg" xmlns:xlink="http://www.w3.org/1999/xlink">
    <!-- Generator: Sketch 47.1 (45422) - http://www.bohemiancoding.com/sketch -->
    <title>Mask</title>
    <desc>Created with Sketch.</desc>
    <defs>
        <path d="M9.99,0 C4.47,0 0,4.48 0,10 C0,15.52 4.47,20 9.99,20 C15.52,20 20,15.52 20,10 C20,4.48 15.52,0 9.99,0 Z M16.92,6 L13.97,6 C13.65,4.75 13.19,3.55 12.59,2.44 C14.43,3.07 15.96,4.35 16.92,6 Z M10,2.04 C10.83,3.24 11.48,4.57 11.91,6 L8.09,6 C8.52,4.57 9.17,3.24 10,2.04 Z M2.26,12 C2.1,11.36 2,10.69 2,10 C2,9.31 2.1,8.64 2.26,8 L5.64,8 C5.56,8.66 5.5,9.32 5.5,10 C5.5,10.68 5.56,11.34 5.64,12 L2.26,12 Z M3.08,14 L6.03,14 C6.35,15.25 6.81,16.45 7.41,17.56 C5.57,16.93 4.04,15.66 3.08,14 L3.08,14 Z M6.03,6 L3.08,6 C4.04,4.34 5.57,3.07 7.41,2.44 C6.81,3.55 6.35,4.75 6.03,6 L6.03,6 Z M10,17.96 C9.17,16.76 8.52,15.43 8.09,14 L11.91,14 C11.48,15.43 10.83,16.76 10,17.96 Z M12.34,12 L7.66,12 C7.57,11.34 7.5,10.68 7.5,10 C7.5,9.32 7.57,8.65 7.66,8 L12.34,8 C12.43,8.65 12.5,9.32 12.5,10 C12.5,10.68 12.43,11.34 12.34,12 Z M12.59,17.56 C13.19,16.45 13.65,15.25 13.97,14 L16.92,14 C15.96,15.65 14.43,16.93 12.59,17.56 L12.59,17.56 Z M14.36,12 C14.44,11.34 14.5,10.68 14.5,10 C14.5,9.32 14.44,8.66 14.36,8 L17.74,8 C17.9,8.64 18,9.31 18,10 C18,10.69 17.9,11.36 17.74,12 L14.36,12 Z" id="path-1"></path>
    </defs>
    <g id="Icons" stroke="none" stroke-width="1" fill="none" fill-rule="evenodd">
        <g id="extra-/-globe" transform="translate(-2.000000, -2.000000)">
            <g id="globe">
                <g id="Icon-🎨" transform="translate(2.000000, 2.000000)">
                    <mask id="mask-2" fill="white">
                        <use xlink:href="#path-1"></use>
                    </mask>
                    <use id="Mask" fill="#001833" fill-rule="nonzero" xlink:href="#path-1"></use>
                </g>
            </g>
        </g>
    </g>
</svg>

<?xml version="1.0" encoding="utf-8"?>
<!-- Generator: Adobe Illustrator 21.1.0, SVG Export Plug-In . SVG Version: 6.00 Build 0)  -->
<svg version="1.1" id="Layer_1" xmlns="http://www.w3.org/2000/svg" xmlns:xlink="http://www.w3.org/1999/xlink" x="0px" y="0px"
	 viewBox="0 0 20 20" style="enable-background:new 0 0 20 20;" xml:space="preserve">
<style type="text/css">
	.st0{fill:#001833;}
</style>
<path id="path-1_1_" class="st0" d="M10,0C4.5,0,0,4.5,0,10s4.5,10,10,10c5.5,0,10-4.5,10-10S15.5,0,10,0z M16.9,6H14
	c-0.3-1.2-0.8-2.5-1.4-3.6C14.4,3.1,16,4.3,16.9,6z M10,2c0.8,1.2,1.5,2.5,1.9,4H8.1C8.5,4.6,9.2,3.2,10,2z M2.3,12
	C2.1,11.4,2,10.7,2,10s0.1-1.4,0.3-2h3.4c-0.1,0.7-0.1,1.3-0.1,2s0.1,1.3,0.1,2H2.3z M3.1,14h3c0.3,1.2,0.8,2.5,1.4,3.6
	C5.6,16.9,4,15.7,3.1,14L3.1,14z M6,6h-3c1-1.7,2.5-2.9,4.3-3.6C6.8,3.5,6.3,4.8,6,6L6,6z M10,18c-0.8-1.2-1.5-2.5-1.9-4h3.8
	C11.5,15.4,10.8,16.8,10,18z M12.3,12H7.7c-0.1-0.7-0.2-1.3-0.2-2s0.1-1.4,0.2-2h4.7c0.1,0.6,0.2,1.3,0.2,2S12.4,11.3,12.3,12z
	 M12.6,17.6c0.6-1.1,1.1-2.3,1.4-3.6h2.9C16,15.6,14.4,16.9,12.6,17.6L12.6,17.6z M14.4,12c0.1-0.7,0.1-1.3,0.1-2s-0.1-1.3-0.1-2
	h3.4c0.2,0.6,0.3,1.3,0.3,2s-0.1,1.4-0.3,2H14.4z"/>
</svg>
